X:142
T:Miss Fishers Hornpipe. JGi.142
M:C|
N:No time sig. in MS
L:1/8
Q:1/4=130
S:Joshua Gibbons MS,1823,Tealby,Lincs.
R:.hornpipe
C:
O:Tealby,Lincolnshire
Z:VMP/R.Greig, 2009
K:C
ed|cBcG AGFE|FGAFG2ed|cBcA GBdf|e2c2c2:|
|:dc|Bcdef2dB|cdefg2ec|GABc defd|e2c2c2|]

